uploads/2019/01/22/emmy.svg

<svg height="83" viewBox="0 0 225 83" width="225" xmlns="http://www.w3.org/2000/svg"><g fill="#e32119" fill-rule="evenodd" transform="translate(12 9)"><path d="m95.6486842 21.8967407c-.518421-1.5182222-1.0368421-3.0364444-2.0736842-4.3016296s-2.3328947-2.2773333-3.8881579-2.7834074c-2.0736842-.7591111-4.1473684-1.0121481-5.9618421-.7591111-2.3328947.253037-4.6657895 1.2651852-6.7394737 2.5303704-1.8144737 1.2651851-3.3697368 3.0364444-4.4065789 5.0607407-.7776316-1.7712593-2.3328948-3.0364444-4.1473685-3.7955556-2.0736842-.7591111-4.1473684-1.0121481-6.4802631-.7591111-1.2960526.2530371-2.3328947.5060741-3.6289474 1.0121482-1.0368421.5060741-2.0736842 1.0121481-2.8513158 1.7712592-.7776315.5060741-1.5552631 1.2651852-2.3328947 2.2773334-.5184211.7591111-1.0368421 1.5182222-1.5552632 2.5303703h-.2592105v-4.8077037l-11.1460526 1.5182223v35.1721481l11.6644737-1.5182222v-19.2308148c0-2.0242963.518421-3.7955556 1.5552631-5.5668148.7776316-1.5182223 2.3328948-2.5303704 4.1473684-2.7834074 1.8144737-.2530371 3.1105264.253037 3.8881579 1.2651851.7776316 1.0121482 1.2960527 2.5303704 1.2960527 4.5546667v19.9899259l11.4052631-1.5182222v-18.9777778c0-1.0121481 0-2.0242963.2592106-3.0364444.2592105-1.0121482.518421-1.7712593 1.0368421-2.5303704.518421-.7591111 1.0368421-1.5182222 1.8144736-2.0242963.7776316-.5060741 1.5552632-.7591111 2.5921053-1.0121481.7776316-.2530371 1.8144737 0 2.5921053.253037.518421.253037 1.0368421.7591111 1.5552631 1.2651852.5184211.7591111.7776316 1.5182222.7776316 2.2773333.2592105 1.0121482.2592105 1.7712593.2592105 2.7834074v19.2308149l11.4052632-1.5182223v-21.7611852c0-1.5182222-.2592105-3.0364444-.7776316-4.8077037"/><path d="m177.559211 25.4392593-7.776316-21.50814819-12.701316 1.77125926 14.515789 32.64177773-1.036842 3.0364445c-.518421 1.2651852-1.036842 2.5303704-2.073684 3.7955555-.777631 1.0121482-2.073684 1.5182223-3.888158 1.7712593-.518421 0-1.296052 0-1.814473 0-.777632 0-4.406579-.5060741-4.925-.5060741v9.8684445c.777631 0 3.628947.5060741 4.665789.5060741 3.110526 0 6.221053-.5060741 9.072368-1.7712593 1.555264-.7591111 3.110527-1.7712593 4.147369-2.7834074 1.296052-1.2651852 2.332895-2.5303704 3.110526-4.0485926 1.036842-1.7712593 1.814474-3.5425185 2.332895-5.3137778l15.552631-42.76325924-12.182894 1.51822222z"/><path d="m156.563158 40.6214815v-21.7611852c0-1.7712593-.259211-3.2894815-.777632-5.0607407-.518421-1.5182223-1.036842-3.0364445-2.073684-4.30162967-1.036842-1.26518519-2.332895-2.27733334-3.888158-2.78340741-1.814473-.75911111-3.888158-.75911111-5.961842-.50607408-2.332895.25303704-4.665789 1.01214815-6.739474 2.53037037-1.814473 1.26518519-3.369736 3.03644449-4.406579 5.06074079-.777631-1.7712593-2.332894-3.0364445-4.147368-3.7955556-2.073684-.75911111-4.147368-1.01214815-6.480263-.75911111-1.296053.25303704-2.332895.50607407-3.628947 1.01214811-1.036843.5060741-2.073685 1.0121482-2.851316 1.7712593-.777632.5060741-1.555263 1.2651852-2.332895 2.2773333-.518421.7591111-1.036842 1.5182223-1.555263 2.5303704h-.259211v-5.3137778l-11.146052 1.5182222v35.1721482l11.664473-1.5182222v-19.2308148c0-2.0242963.518421-3.7955556 1.555264-5.5668149.777631-1.5182222 2.332894-2.5303703 4.147368-2.7834074 1.814474-.253037 3.110526.2530371 3.888158 1.2651852.777631 1.0121482 1.296052 2.5303704 1.296052 4.5546667v20.2429629l11.405264-1.5182222v-18.9777778c0-1.0121481 0-2.0242962.25921-3.0364444.259211-1.0121481.518421-1.7712593 1.036842-2.5303704s1.036842-1.5182222 1.814474-2.0242963c.777632-.506074 1.555263-.7591111 2.592105-1.0121481.777632-.253037 1.814474 0 2.592105.253037.518422.2530371 1.036843.7591111 1.555264 1.2651852.518421.7591111.777631 1.5182222.777631 2.2773333.259211 1.0121482.259211 1.7712593.259211 2.7834075v19.2308148z"/><path d="m10.8868421 38.3441481c0-1.0121481.2592105-1.7712592.7776316-2.7834074.518421-.7591111 1.0368421-1.7712592 1.5552631-2.2773333.7776316-.7591111 1.5552632-1.2651852 2.3328948-1.7712593 1.0368421-.506074 2.0736842-.7591111 3.1105263-1.0121481 2.3328947-.253037 3.8881579 0 5.1842105 1.2651852 1.0368421 1.2651852 1.8144737 2.7834074 1.8144737 4.5546667zm20.4776316-12.3988148c-1.5552632-1.5182222-3.3697369-2.5303703-5.4434211-3.0364444-2.3328947-.5060741-4.6657894-.7591111-6.9986842-.253037-2.5921052.253037-5.1842105 1.0121481-7.5171052 2.2773333-2.33289478 1.2651852-4.14736846 2.7834074-5.96184215 4.5546667-1.81447368 2.0242962-3.11052631 4.0485925-3.88815789 6.5789629-1.03684211 2.5303704-1.55526316 5.3137778-1.55526316 8.0971852 0 2.5303704.51842105 5.3137778 1.55526316 7.8441481 1.0368421 2.0242963 2.33289473 3.7955556 4.14736842 5.3137778 1.81447368 1.2651852 3.88815789 2.2773334 6.22105262 2.7834074 2.3328947.5060741 4.925.5060741 7.5171053.2530371 3.3697368-.5060741 6.4802631-1.5182223 9.3315789-3.2894815 2.5921053-1.5182222 4.925-3.7955556 6.4802632-6.3259259l-8.0355263-4.0485926c-.7776316 1.2651852-1.8144737 2.2773333-3.1105264 3.0364444-1.2960526 1.0121482-2.8513157 1.5182222-4.6657894 1.7712593-1.0368421.253037-2.0736842 0-2.8513158 0-1.0368421-.2530371-1.8144737-.5060741-2.5921053-1.0121482-.7776316-.506074-1.2960526-1.0121481-1.8144737-1.7712592-.518421-.7591111-.7776315-1.7712593-.7776315-2.5303704l25.143421-3.2894815c0-.5060741 0-1.0121481 0-1.2651852v-2.2773333c0-2.7834074-.2592105-5.3137778-1.2960526-7.8441482-1.0368421-2.0242962-2.0736842-4.0485925-3.8881579-5.5668148z" fill-rule="nonzero"/></g></svg>

<?xml version="1.0" encoding="UTF-8"?>
<svg width="225px" height="83px" viewBox="0 0 225 83" version="1.1" xmlns="http://www.w3.org/2000/svg" xmlns:xlink="http://www.w3.org/1999/xlink">
    <!-- Generator: Sketch 52.5 (67469) - http://www.bohemiancoding.com/sketch -->
    <title>Artboard</title>
    <desc>Created with Sketch.</desc>
    <g id="Artboard" stroke="none" stroke-width="1" fill="none" fill-rule="evenodd">
        <g id="emmy" transform="translate(12.000000, 9.000000)" fill="#E32119">
            <path d="M95.6486842,21.8967407 C95.1302632,20.3785185 94.6118421,18.8602963 93.575,17.5951111 C92.5381579,16.3299259 91.2421053,15.3177778 89.6868421,14.8117037 C87.6131579,14.0525926 85.5394737,13.7995556 83.725,14.0525926 C81.3921053,14.3056296 79.0592105,15.3177778 76.9855263,16.582963 C75.1710526,17.8481481 73.6157895,19.6194074 72.5789474,21.6437037 C71.8013158,19.8724444 70.2460526,18.6072593 68.4315789,17.8481481 C66.3578947,17.089037 64.2842105,16.836 61.9513158,17.089037 C60.6552632,17.3420741 59.6184211,17.5951111 58.3223684,18.1011852 C57.2855263,18.6072593 56.2486842,19.1133333 55.4710526,19.8724444 C54.6934211,20.3785185 53.9157895,21.1376296 53.1381579,22.1497778 C52.6197368,22.9088889 52.1013158,23.668 51.5828947,24.6801481 L51.3236842,24.6801481 L51.3236842,19.8724444 L40.1776316,21.3906667 L40.1776316,56.5628148 L51.8421053,55.0445926 L51.8421053,35.8137778 C51.8421053,33.7894815 52.3605263,32.0182222 53.3973684,30.246963 C54.175,28.7287407 55.7302632,27.7165926 57.5447368,27.4635556 C59.3592105,27.2105185 60.6552632,27.7165926 61.4328947,28.7287407 C62.2105263,29.7408889 62.7289474,31.2591111 62.7289474,33.2834074 L62.7289474,53.2733333 L74.1342105,51.7551111 L74.1342105,32.7773333 C74.1342105,31.7651852 74.1342105,30.753037 74.3934211,29.7408889 C74.6526316,28.7287407 74.9118421,27.9696296 75.4302632,27.2105185 C75.9486842,26.4514074 76.4671053,25.6922963 77.2447368,25.1862222 C78.0223684,24.6801481 78.8,24.4271111 79.8368421,24.1740741 C80.6144737,23.921037 81.6513158,24.1740741 82.4289474,24.4271111 C82.9473684,24.6801481 83.4657895,25.1862222 83.9842105,25.6922963 C84.5026316,26.4514074 84.7618421,27.2105185 84.7618421,27.9696296 C85.0210526,28.9817778 85.0210526,29.7408889 85.0210526,30.753037 L85.0210526,49.9838519 L96.4263158,48.4656296 L96.4263158,26.7044444 C96.4263158,25.1862222 96.1671053,23.668 95.6486842,21.8967407" id="Path"></path>
            <path d="M177.559211,25.4392593 L169.782895,3.93111111 L157.081579,5.70237037 L171.597368,38.3441481 L170.560526,41.3805926 C170.042105,42.6457778 169.523684,43.910963 168.486842,45.1761481 C167.709211,46.1882963 166.413158,46.6943704 164.598684,46.9474074 C164.080263,46.9474074 163.302632,46.9474074 162.784211,46.9474074 C162.006579,46.9474074 158.377632,46.4413333 157.859211,46.4413333 L157.859211,56.3097778 C158.636842,56.3097778 161.488158,56.8158519 162.525,56.8158519 C165.635526,56.8158519 168.746053,56.3097778 171.597368,55.0445926 C173.152632,54.2854815 174.707895,53.2733333 175.744737,52.2611852 C177.040789,50.996 178.077632,49.7308148 178.855263,48.2125926 C179.892105,46.4413333 180.669737,44.6700741 181.188158,42.8988148 L196.740789,0.135555556 L184.557895,1.65377778 L177.559211,25.4392593 Z" id="Path"></path>
            <path d="M156.563158,40.6214815 L156.563158,18.8602963 C156.563158,17.089037 156.303947,15.5708148 155.785526,13.7995556 C155.267105,12.2813333 154.748684,10.7631111 153.711842,9.49792593 C152.675,8.23274074 151.378947,7.22059259 149.823684,6.71451852 C148.009211,5.95540741 145.935526,5.95540741 143.861842,6.20844444 C141.528947,6.46148148 139.196053,7.22059259 137.122368,8.73881481 C135.307895,10.004 133.752632,11.7752593 132.715789,13.7995556 C131.938158,12.0282963 130.382895,10.7631111 128.568421,10.004 C126.494737,9.24488889 124.421053,8.99185185 122.088158,9.24488889 C120.792105,9.49792593 119.755263,9.75096296 118.459211,10.257037 C117.422368,10.7631111 116.385526,11.2691852 115.607895,12.0282963 C114.830263,12.5343704 114.052632,13.2934815 113.275,14.3056296 C112.756579,15.0647407 112.238158,15.8238519 111.719737,16.836 L111.460526,16.836 L111.460526,11.5222222 L100.314474,13.0404444 L100.314474,48.2125926 L111.978947,46.6943704 L111.978947,27.4635556 C111.978947,25.4392593 112.497368,23.668 113.534211,21.8967407 C114.311842,20.3785185 115.867105,19.3663704 117.681579,19.1133333 C119.496053,18.8602963 120.792105,19.3663704 121.569737,20.3785185 C122.347368,21.3906667 122.865789,22.9088889 122.865789,24.9331852 L122.865789,45.1761481 L134.271053,43.6579259 L134.271053,24.6801481 C134.271053,23.668 134.271053,22.6558519 134.530263,21.6437037 C134.789474,20.6315556 135.048684,19.8724444 135.567105,19.1133333 C136.085526,18.3542222 136.603947,17.5951111 137.381579,17.089037 C138.159211,16.582963 138.936842,16.3299259 139.973684,16.0768889 C140.751316,15.8238519 141.788158,16.0768889 142.565789,16.3299259 C143.084211,16.582963 143.602632,17.089037 144.121053,17.5951111 C144.639474,18.3542222 144.898684,19.1133333 144.898684,19.8724444 C145.157895,20.8845926 145.157895,21.6437037 145.157895,22.6558519 L145.157895,41.8866667 L156.563158,40.6214815 Z" id="Path"></path>
            <path d="M10.8868421,38.3441481 C10.8868421,37.332 11.1460526,36.5728889 11.6644737,35.5607407 C12.1828947,34.8016296 12.7013158,33.7894815 13.2197368,33.2834074 C13.9973684,32.5242963 14.775,32.0182222 15.5526316,31.5121481 C16.5894737,31.0060741 17.6263158,30.753037 18.6631579,30.5 C20.9960526,30.246963 22.5513158,30.5 23.8473684,31.7651852 C24.8842105,33.0303704 25.6618421,34.5485926 25.6618421,36.3198519 L10.8868421,38.3441481 Z M31.3644737,25.9453333 C29.8092105,24.4271111 27.9947368,23.414963 25.9210526,22.9088889 C23.5881579,22.4028148 21.2552632,22.1497778 18.9223684,22.6558519 C16.3302632,22.9088889 13.7381579,23.668 11.4052632,24.9331852 C9.07236842,26.1983704 7.25789474,27.7165926 5.44342105,29.4878519 C3.62894737,31.5121481 2.33289474,33.5364444 1.55526316,36.0668148 C0.518421053,38.5971852 1.77635684e-15,41.3805926 1.77635684e-15,44.164 C1.77635684e-15,46.6943704 0.518421053,49.4777778 1.55526316,52.0081481 C2.59210526,54.0324444 3.88815789,55.8037037 5.70263158,57.3219259 C7.51710526,58.5871111 9.59078947,59.5992593 11.9236842,60.1053333 C14.2565789,60.6114074 16.8486842,60.6114074 19.4407895,60.3583704 C22.8105263,59.8522963 25.9210526,58.8401481 28.7723684,57.0688889 C31.3644737,55.5506667 33.6973684,53.2733333 35.2526316,50.742963 L27.2171053,46.6943704 C26.4394737,47.9595556 25.4026316,48.9717037 24.1065789,49.7308148 C22.8105263,50.742963 21.2552632,51.249037 19.4407895,51.5020741 C18.4039474,51.7551111 17.3671053,51.5020741 16.5894737,51.5020741 C15.5526316,51.249037 14.775,50.996 13.9973684,50.4899259 C13.2197368,49.9838519 12.7013158,49.4777778 12.1828947,48.7186667 C11.6644737,47.9595556 11.4052632,46.9474074 11.4052632,46.1882963 L36.5486842,42.8988148 C36.5486842,42.3927407 36.5486842,41.8866667 36.5486842,41.6336296 L36.5486842,39.3562963 C36.5486842,36.5728889 36.2894737,34.0425185 35.2526316,31.5121481 C34.2157895,29.4878519 33.1789474,27.4635556 31.3644737,25.9453333 Z" id="Shape" fill-rule="nonzero"></path>
        </g>
    </g>
</svg>
